outputs/icons/navigation/close_round.svg

<svg xmlns="http://www.w3.org/2000/svg" width="1200" height="1200" fill="none"><g clip-path="url(#a)"><path fill="#000" d="M915 285.499c-19.5-19.501-51-19.501-70.5 0L600 529.5 355.498 284.999c-19.5-19.501-51-19.501-70.499 0-19.501 19.499-19.501 50.999 0 70.499L529.5 600 284.999 844.5c-19.501 19.5-19.501 51 0 70.5 19.499 19.5 50.999 19.5 70.499 0L600 670.5 844.5 915c19.5 19.5 51 19.5 70.5 0s19.5-51 0-70.5L670.5 600 915 355.498c19-19 19-51 0-69.999"/></g><defs><clipPath id="a"><path fill="#fff" d="M0 0h1200v1200H0z"/></clipPath></defs></svg>

<svg width="1200" height="1200" viewBox="0 0 1200 1200" fill="none" xmlns="http://www.w3.org/2000/svg"><g clip-path="url(#clip0_225_2884)"><path d="M915 285.499C895.5 265.998 864 265.998 844.5 285.499L600 529.5L355.498 284.999C335.998 265.498 304.498 265.498 284.999 284.999C265.498 304.498 265.498 335.998 284.999 355.498L529.5 600L284.999 844.5C265.498 864 265.498 895.5 284.999 915C304.498 934.5 335.998 934.5 355.498 915L600 670.5L844.5 915C864 934.5 895.5 934.5 915 915C934.5 895.5 934.5 864 915 844.5L670.5 600L915 355.498C934 336.498 934 304.498 915 285.499Z" fill="black"/></g><defs><clipPath id="clip0_225_2884"><path width="24" fill="white" d="M0 0H1200V1200H0V0z"/></clipPath></defs></svg>
